X: 65
T: No_28_I_Offer_My_Song.krn
N: Derived from No_28_I_Offer_My_Song.krn
%%abc-version 2.0
%%abcx-abcm2ps-target-version 5.9.1 (29 Sep 2008)
%%abc-creator hum2abc beta
%%abcx-conversion-date 2019/03/15 08:35:44
%%humdrum-veritas 3838464841
%%humdrum-veritas-data 3890647271
%%linebreak <none>
%%barnumbers 0
L: 1/8
M: 2/4
K: D clef=bass
[K:clef=bass][M:2/4]z2D2 ||  
[M:5/4]D2D2D3/B,/ A, zA,2 | 
A,2A,2A,3/F,/ E, zA,2 | 
A,2A,2A,3/A,/G,2G,2 | 
E,2E,2E,3/D,/D,2D,2 | 
D,2D,2D,3/D,/ B,, zD,2 | 
E,2E,2E,3/E,/D,2(E,3/D,/) ||  
[M:4/4]D,2D,2D, z D,B,, | 
A,,4-A,,4 ||  
[M:2/4]A,, zz2 |]  



